X:1
T:[ID 2-46b]
T:[ID 2-46b]
T:Bezeichnung standardisiert: Menuett Men\"uet 6.
T:Urheber unbekannt Datum in der hier transkribierten schriftlichen Quelle: 1767
C:Urheber unbekannt
C:Datum in der hier transkribierten schriftlichen Quelle: 1767
L:1/8
M:3/4
K:D
V:1 treble 
V:1
 a2 a2 a2 | a2 fdec | d2 A2 A2 | A2 FDEC | D2 f2 d2 | ^ga A4 | d2 c2 B2 | A6 :: e2 e2 e2 | %9
 e2 cAB^G | A2 a2 a2 | a2 fdec | d2 b2 a2 | g4 f2 | egfedc | d6 :| %16

